!!!COM: John Williams
!!!OTL: Han and Leia (Love Theme)
!!!GAW: Star Wars: Episode V: The Empire Strikes Back
!!!ODT: 1980
!!!OCL: Frank Lehman
!!!ENC: Claire Arthur
!!!ENC2: John McNamara
**kern	**harte	**harm	**altharm	**pedal	**cadence	**text
*clefG2	*	*	*	*	*	*
*k[f#c#g#d#]	*k[f#c#g#d#]	*k[f#c#g#d#]	*	*	*	*
*E:	*E:	*E:	*	*	*	*
*M4/4	*M4/4	*M4/4	*	*	*	*
*MM102	*MM102	*MM102	*	*	*	*
4B	.	.	.	.	.	.
=1	=1	=1	=1	=1	=1	=1
[2g#	E	I	None	Pedal: E	.	.
8g#L]	.	.	.	.	.	.
8f#	.	.	.	.	.	.
8g#	.	.	.	.	.	.
8bJ	.	.	.	.	.	.
=2	=2	=2	=2	=2	=2	=2
2.f#	F#:9(b5)/b7	iiom7	.	.	.	.
4A	.	.	.	.	.	.
=3	=3	=3	=3	=3	=3	=3
8fn	F/7	-II	.	.	.	.
8r	.	.	.	.	.	.
[4f	.	.	.	.	.	.
8fL]	.	.	.	.	.	.
8e	.	.	.	.	.	.
8f	.	.	.	.	.	.
8aJ	.	.	.	.	.	.
=4	=4	=4	=4	=4	=4	=4
2d#	F:7/7	-II7	Gn/I	.	.	.
4en	E	I	.	Pedal: None	//	.
4B	.	.	.	.	.	.
=5	=5	=5	=5	=5	=5	=5
[2g#	E	I	.	.	.	.
8g#L]	.	.	.	.	.	.
8f#	.	.	.	.	.	.
8g#	.	.	.	.	.	.
8bJ	.	.	.	.	.	.
=6	=6	=6	=6	=6	=6	=6
4.a	F	-II	None	.	.	.
8gn	.	.	.	.	.	.
8fnL	.	.	.	.	.	.
8g	.	.	.	.	.	.
8a	F/7	.	.	.	.	.
8bJ	.	.	.	.	.	.
=7	=7	=7	=7	=7	=7	=7
8ccnL	D:min7	-vii7	.	.	.	.
8bJ	.	.	.	.	.	.
[4a	.	.	.	.	.	.
8aL]	.	.	.	.	.	.
8b	.	.	.	.	.	.
8cc	.	.	.	.	.	.
8ddnJ	.	.	.	.	.	.
=8	=8	=8	=8	=8	=8	=8
[2b	G#:min	iii	.	.	.	On a larger level G#m serves as Emaj's mediant, but locally it behaves as a nonfunctional tonal deflection-
8b]	.	.	.	.	.	.
4r	.	.	.	.	||	.
8r	.	.	.	.	.	.
=	=	=	=	=	=	=
*-	*-	*-	*-	*-	*-	*-
